X: 16051
T: Green Cottage, The
R: polka
M: 2/4
K: Adorian
|:cA AG|EA A>B|cA AG|cd e/g/e/d/|
cA AG|EA A2|ag e/g/e/d/|1 cB A>B:|2 cB A2||
|:ea a/b/a/g/|ea a/b/a/g/|ea ab|c'b ab|
c'2 b2|ag e>d|cA AG|cd e>d:|

